X: 199
T: The spotted cow
C: anon.
O: Ireland
B: Francis O'Neill: "The Dance Music of Ireland" (1907) no. 199
R: Double jig
Z: Transcribed by Frank Nordberg - http://www.musicaviva.com
F: http://www.musicaviva.com/abc/tunes/ireland/oneill-1001/oneill-1001-019
9.abc
M: 6/8
L: 1/8
K: D
Add fdd|edd fdd|Add fdd|edB BAF|Add fdd|edd fdd|(f/g/a)f geg|fdB B2d:|
|:AFA A2B|AFA A2B|AFA Dfe|fdB B2d|AGF A2d|AGF A2B|dfd (e/f/g)e|fdB B2d:|
|:ABA AFA|DFA DFA|ABA AFA|fdB BAF|ABA AFA|DFA DFA|(f/g/a).f geg|gdB B2d:|
